X:10
T:Wohlfahrt 10
C:Franz Wohlfahrt / K.H. Aiquoni
L:1/8
Q:1/4=100
M:4/4
I:linebreak $
K:Bb
"Bb" BABc dcBA |"Eb" G^FGA BAG=F |"Cm" EDCB,"F7" A,CFE |"Bb" DEFD B,DFB |$"Bb" d^cde dBGF | 
"C7" =EFGB =efgb |"F" a^gaf"C7" =g^fg=e |"F" f=efc AFGA |$"Bb" BABc dcBA |"Eb" G^FGA BAG=F | 
"Cm" EDCB,"F7" A,CFE |"Bb" DEFD B,DEF |$"Eb" G^FGB egbg |"Bb" f=efd ABcd |"F7" _edec AFEC | 
"Bb" A,B,DF Bdfb ||$"F/C" a^gaf"C7" =ecBG |"F" F=EFA CFAc |"C7" BABg"F" fcAF |"C7" =EFGA Bcd=e | 
"F" f=efg afga |$"Bb" babf dBcd |"F" c=Bcf a"C7"c_Bg |"F" f=efc"F7" AFGA ||$"Bb" BABc dcBA | 
"Eb" G^FGA BAG=F |"Cm" EDCB,"F7" A,CFE |"Bb" DEFD B,DFB |$"Bb" d^cde dBGF |"C7" =EFGB =efgb | 
"F" a^gaf"C7" =g^fg=e |"F" f=efc AFGA |$"Bb" BABc dcBA |"Gm" G^FGA BAG=F |"Cm" EDCB,"F7" A,CFE | 
"Bb" DEFD B,DEF |$"Eb" G^FGB egbg |"Bb" f=efd ABcd |"F7" _edec AFEC |"Bb" A,B,DF B2 z2 |] 



